!!! OTL: Berkowitz393
!!! Chapter: 1
!!! Section: III
!!! Page: 97
!!! Mode: 
!!! Encoder: DJB
**kern
*staff1
*I"Piano
=1-
*clefG2
*k[f#c#]
*D:
*M2/4
4r
8r
8f#/
=2
8f#/L
8e/J
8r
8e/
=3
8e/L
8d/J
8r
8d/
=4
8c#/L
8e/J
8g/L
8b/J
=5
8b/L
8a/J
8r
8a/
=6
8g#\L
8dd\J
8r
8dd\
=7
8dd\L
8cc#\J
8r
8cc#\
=8
8b\L
8dd\J
8f#/L
8g#/J
=9
!!linebreak:original
8b/L
8a/J
8r
8a/
=10
8a\L
8cc#\J
8e/L
8f#/J
=11
8a/L
8g/J
8r
8g/
=12
8g/L
8b/J
8c#/L
8d/J
=13
8e/L
8d/J
8r
8f#/
=14
8f#/L
8e/J
8r
8g/
=15
8g/L
8f#/J
[4dd\
=16
8dd\L]
8dd\J
8b/L
8f#/J
=17
8g/L
8e/J
8b/L
8a#/J
=18
!!linebreak:original
8b/L
8a/J
8b/L
8a#/J
=19
8b/L
8a/J
8ee\L
8g\J
=20
8g/L
8f#/J
8dd\L
8a#\J
=21
8b/L
8f#/J
8g/L
8c#/J
=22
4d/
4r
==
*-
